X:1904
T:Sarah's Slightly Different March
C:Sarah Hydorn
M:C
L:1/4
R:March
Z:<http://tunes.nhcountrydance.com>.
K:G
DG | "G" B2 B> d | cBAG | "C" c2 c> d | e g2 e | "G" d2 d> e | dBAG | "D" A4- | A2 DG |
| "G" B2 B> d | cBAG | "C" c2 c> d | e g2 e | "G" d2 d> e | "D" dBAG | "G" G4- | G2 |]
gf | "C" e2 e>f | ggfe | "G" d B2G | Bdgf | "C" e2 e>f | edBG | "A" A4 - | "D" A2 gf |
"C" e2 e>f | ggfe | "G" dBAG | "Em" E2 GA | "A" B d2 e | "D" dBAG |"G" G4- | G2 |]

Polkas

